X:1
T:Sonnerie
T:Sonnerie de Sainte Geneviève du Mont de Paris 
T:Marin Marais (1656-1728)
%%score [ 1 ( 2 3 ) 4 ]
L:1/8
Q:1/4=120
M:3/4
K:C
V:1 treble nm="Violon"
V:2 bass nm="Viole"
V:3 bass 
V:4 bass nm="Clavecin"
V:1
"^Légèrement" z6 | z6 | z6 | z6 | z2 z z/!mf! d/ ^c>e | A3 _B G2 | F3 F (G3/2F/4G/4) | %7
 A2 d2 (^c3/2B/4c/4) | d2- d>d ^c>e | A3 _B G2 | F3 F (G3/2F/4G/4) | A2 d2 (^c3/2B/4c/4) | %12
"_Grand Coup d'archet et pointé" daaA eg | fedf^ce | AAAB^cA | dAAFGE | FaaAeg | fedf^ce | %18
 AAAB^cA | d4 ^c2 | d2 a2 g2 | f2!p! a2 g2 | f2!f! d2{^c} e2{A} | A2!p! d2{^c} e2{A} | %24
 A2!f! a2 g2 | f2!p! a2 g2 | f2!f! d2 ^c2 | f2{fg} a2 ^c2 | d4 z2 | z6 | z6 | z6 | z2 d'2 c'2 | %33
 _b2 a2 g2 | (f3 g) (g3/2f/4g/4) | a6- | a2 d'2 c'2 | _b2 a2 g2 | (f3 g) (g3/2f/4g/4) | a6- | %40
 a3 d e(d/^c/) | f3 f g(f/e/) | a3 _b ge | fa d2 ^c2 | z2 z d e(d/^c/) | f3 f g(f/e/) | a3 _bge | %47
 fd d3 ^c | d2 z2 z2 | z6 | z6 | z6 | z2 A>A e>g | f>ga>d ^c2 | z2 z z/ d/ e>g | f>ed>ag>e | %56
 f2 A>A e>g | f>g a>d ^c2 | z2 z z/ d/ e>g | f>g a>d' (^c'3/2b/4c'/4) | d'2 z2 z2 | z6 | z6 | z6 | %64
 fe d2 ^c2 | d4 z2 | fe d2 ^c2 | d4 z2 | A4 B>^c | d4 ^c2 | (f3 e/d/) (g3/2f/4e/4) | a6 | A4 B>^c | %73
 d4 ^c2 | (f3 e/d/) (g3/2f/4e/4) | a4 z2 | z6 |"_Pointé à grand Coup d'archet \n" agafge | %78
 fg a2 ^c2 | d4 e2 | A6 | agafge | fg a2 ^c2 | d2{c} B2 ^c3/2-B/4c/4 | d4 z2 | z6 | z6 | z6 | z6 | %89
 z6 | z6 | z6 | z6 | z6 | z6 | z6 | z6 | z6 | F/E/F/G/ A/G/A/B/ ^c/B/c/A/ | %99
 d/e/f/g/ a/g/a/f/ g/f/g/e/ | f/a/f/a/ d/f/d/f/ ^c/e/c/e/ | A/G/A/_B/ A/B/A/B/ G/F/G/E/ | %102
 F/E/F/G/ A/G/A/B/ ^c/B/c/A/ | d/e/f/g/ a/g/a/f/ g/f/g/e/ | f/a/f/a/ d/f/d/f/ ^c/e/c/e/ | %105
 A/G/A/_B/ A/B/A/B/ G/F/G/E/ | F/G/F/E/ D/E/F/D/ G/F/G/E/ | A/f/f/f/ d/f/f/f/ ^c/e/e/e/ | %108
 a/a/a/a/ d'/d/d/d/ g/^c/c/c/ | f/A/A/A/ d/A/A/A/ G/e/e/e/ | F/G/F/E/ D/E/F/D/ G/F/G/E/ | %111
 A/f/f/f/ d/f/f/f/ ^c/e/e/e/ | a/a/a/a/ d'/d/d/d/ g/^c/c/c/ | d2 z2 z2 | z6 | z6 | z6 | %117
 a2- a3/2 (3(a/4g/4f/4) g3/2 (3(g/4f/4e/4) | (f3{agfed} ^c2) z | (d3 (3^c/d/e/) (e3/2d/4e/4) | %120
 (f3 (3e/f/g/) (g3/2f/4g/4) | a2- a3/2 (3(a/4g/4f/4) g3/2 (3(g/4f/4e/4) | (f3{agfed} ^c2) z | %123
 d2 z2 z2 | z .D .A.F.G.E | AAdf G(F/E/) | Ff A d2 ^c | dDAFGE | AAdf G(F/E/) | Ff A d2 ^c | %130
 d2 z2 z2 | z6 | z6 | z6 | z6 | z6 | z6 | z6 | z6 | z6 | z2 d2 e2 | f4 g2 | a2 b2 ^c'2 | d'4 z2 | %144
 z2 d2 e2 | f4 g2 | a2 b2 ^c'2 | d'4 z2 | z6 | _b2 a2 g2 | _b2 a2 g2 | f4 g2 | f4 g2 | %153
 (fg) a2 ^c2 | (fg) a2 ^c2 | fe d2 (^c3/2B/4)c/4 | d4 z2 | z6 | z2 d'2 (^c'3/2b/4c'/4) | d'2 a4- | %160
 a2 d'2 ^c'3/2-b/4c'/4 | d'2 (a4 | a_b) (ab) (ag) | (fg) (a_b) (ag) | (fg) (a_b) (ag) | %165
 (fg) (a_b) (ag) | (fe) (df) (^ce) | (fe) (df) (^ce) | (fg) a2 ^c2 | d2 (e4 | ef) (e4 | ef) e2 d2 | %172
 cB A2 ^G2 | cB A2 ^G2 | cd e2 (^g3/2f/4g/4) | a2 z2 z2 | z2 A2 B2 | cB A2 B2 | (c/d/c/B/ A2) B2 | %179
 (.c3 B/.c/) (d3/2c/4d/4) | e2 A2 z2 | z6 | z6 | z2 E4 | (c>E) E4 | (c>E) E2 D2 | (C>D) E2 D2 | %187
 C4 D2 | E6- | E4 z2 | (AE) E2 z2 | (AE) E2 z2 | z2 e2 d2 | cB A2 G2 | ^F4 (^G3/2F/4G/4) | A4 z2 | %196
 z2 e2 d2 | cB A2 G2 | (^F3 ^G) (G3/2F/4)G/4 | A4 z2 | (cd) (e>c) (d>B) | (cd) (e>c) (d>B) | %202
 (c/B/c/d/) (e/d/e/c/) (d/c/d/B/) | (c/B/c/d/) (e/d/e/c/) (d/c/d/B/) | %204
 c2 (e/f/4e/4d/4c/4B/4)A/4 ^G2 | z2!p! (e/f/4e/4d/4c/4B/4)A/4 ^G2 ||[K:F] z2 c2 B2 | A2 c2 B2 | %208
 A2 f2 e2 | d2 c2 B2 | AG F2 E2 | (F2 C2) E2 | (F2 C2) E2 | F (A/B/) c2 B2 | A (A/B/) c2 B2 | %215
 A2 f2 g2 | (a>c') f2 g2 | (a3/2b/4c'/4) f2 (g3/2f/4g/4) | a4 z2 | z6 | z2 C4- | C2 F2 E2 | %222
 A2 C4- | C2 (F2 E2) | (AB) c2 (de) | f4 z2 | z2 c3 c | .c6- | c2 c3!p! c | c6- | %230
 c>!f!d (c/B/c/A/) (B/A/B/G/) | A>!p!d (c/B/c/A/) (B/A/B/G/) |!f! (A3 B/c/) (B3/2A/4G/4) | %233
!p! (A3 B/c/) (B3/2A/4G/4) | A/!f!f/e/d/ c/d/c/d/ e/f/g/e/ | a/!p!f/e/d/ c/d/c/d/ e/f/g/e/ | %236
 a>!f!b c'2 (3(bc'b) | (3(aba) (3(fgf) (3(ede) | a>!p!b c'2 (3(bc'b) | (3(aba) (3(fgf) (3(ede) | %240
 f3/2!f!c (cd) (Bc/) | (A3/2!p!c) (c3/2 d/) (Bc/) | (A>!f!G) (F>G) (E>G) | (A>!p!G) (F>G) (E>G) | %244
 (A3 (3B/A/)B/ (B>A) | (A3 (3B/A/)B/ (B>A) | A2 C2- C3/4 C/4D/4E/4F/4G/4 | %247
 A2!p! C2- C3/4 C/4D/4E/4F/4G/4 | A2!f! f2 e2 | f2!p! f2 e2 ||[K:C] f2 z2 z2 | z6 | z6 | z6 | z6 | %255
 z6 | z6 | z6 | z6 | z6 | z6 | z6 | z6 | z6 | z6 | z6 | z6 | z z/!mf! a/ a2 g2 | f3 dge | a6 | %270
 z z/ a/ a2 g2 | f2- f/e/f/d/ g/f/g/e/ | a6 | A6- | A6- | A4 A>A | A4- A3/4 A/4B/4^c/4d/4e/4 | %277
 f4 g2 | fe d2!p! ^c3/4 (A/4B/4^c/4d/4e/4) | f4 g2 | f>e d2 ^c2 | z2 z2!f! e2 | A2 z2!p! e2 | %283
 A2 z2!f! (g>_b) | f2 z2!p! (g3/2a/4_b/4) | f2!f! a2 g2 | a2 d2 e2 | (f3 g/a/) ^c2 | z2!p! a2 g2 | %289
 a2 d2 e2 | (f3 g/4f/4g/4a/4) ^c2 | z6 |!f! A2 d2 e2 | f4 g2 |"_Pointé" abab^c'a | d'2 a2 g2 | %296
 fg a4 | A2 (d3/2^c/4d/4) (e3/2d/4e/4) | (f3 (3g/f/g/) (g3/2f/4g/4) | abab^c'a | d'2 e3 d | d6 |] %302
V:2
 z2!mp! F,2 E,2 | D,2 F,2 E,2 | D,2 F,2 E,2 | D,2 F,2 E,2 | D,2 F,2 E,2 | D,2 F,2 E,2 | %6
 D,2 F,2 E,2 | D,2 F,2 E,2 | D,2 F,2 E,2 | D,2 F,2 E,2 | D,2 F,2 E,2 | D,2 F,2 E,2 | D,2 F,2 E,2 | %13
 D,2 F,2 E,2 | D,2 F,2 E,2 | D,2 F,2 E,2 | D,2 F,2 E,2 | D,2 F,2 E,2 | D,2 F,2 E,2 | D,2 F,2 E,2 | %20
 .D,.D, (F,D) (E,^C) | .D,.D,!p! (F,D) (E,^C) | x2!f! A,2 G,2 | F,A,!p! A,2 G,2 | F,D!f! x4 | %25
 D,D!p! (F,D) (E,^C) | x4 E,2 | D,,(D,/E,/) x2 E,2 | .D,,.D, .F,.F,.E,.E, | .D,.D,.F,.F,.E,.E, | %30
 .D,-.D, .F,-.F, .E,-.E, | .D,-.D, .F,-.F, .E,-.E, | D,2 F,2 E,2 | D,2 F,2 E,2 | D,2 F,2 E,2 | %35
 .D,.A,.F,.D, .A,,.A,,, | D,,(D,/E,/) x4 | D,(D,/E,/) F,2 E,2 | D,(D,/E,/) F,2 E,2 | %39
 D,A,F,D, A,,A,,, | D,,2 D,2 A,,2 | D,,2 F,2 E,2 | D,2 F,,2 E,,2 | x2 F,F, E,E, | x2 F,F, E,E, | %45
 D,,A,DF, E,A, | D,D,, F,,2 E,,2 | D,,(D,/E,/) F,(F,,/G,,/) A,,A,,, | D,D,, F,F,, E,E,, | %49
 D,D,, F,F,, E,E,, | D,D,/E,/ F,G,/F,/ E,F,/E,/ | D,D,/E,/ F,G,/F,/ E,F,/E,/ | D,>F, F,2 E,2 | %53
 D,E, F,2 E,2 | D,>F, F,2 E,2 | D,E, F,2 E,2 | D,/E,/D,/E,/ F,2 E,2 | D,/E,/D,/E,/ F,2 E,2 | %58
 D,2 F,2 E,2 | D,2 F,2 E,2 | .D,.D.F,.A,.E,.G, | D,DF,A,E,G, | %62
 D,/E,/F,/G,/ A,/A,/G,/F,/ E,/G,/F,/E,/ | D,/E,/F,/G,/ A,/A,/G,/F,/ E,/G,/F,/E,/ | %64
 D,2[K:alto] A2 G2 | (FG) A4- | A2 A2 G2 | (FG) A4 |[K:alto] z6 | (F3 E/)D/ (G3/2F/4E/4) | %70
 A>A, D2 E2 | F3/2(3G/4F/4E/4 D2 ^C2 | z6 | (F3 E/D/) (G3/2F/4E/4) | A>A, D2 E2 | %75
 F3/2(3G/4F/4E/4 D2 (^C3/2B,/4C/4) | D2 z2 z2 |[K:alto1] z2 d2 ^c2 | d4 e2 | AGAFGE | F2 d2 ^c2 | %81
 d4 e2 |[K:alto] A2 D2 E2 | (F>A) D2 (E3/2D/4E/4) | %84
 F/[K:bass] A,/A,/A,/ F,/A,/A,/A,/ E,/G,/G,/G,/ | D,/A,/A,/A,/ F,/A,/A,/A,/ E,/G,/G,/G,/ | %86
 D,D F,D E,^C | D,D F,D E,^C | D,A,/G,/ F,G,/F,/ E,A, | D,A,/G,/ F,G,/F,/ E,A, | %90
 D,/_B,/A,/G,/ F,/A,/G,/F,/ E,/F,/G,/A,/ | D,/_B,/A,/G,/ F,/A,/G,/F,/ E,/F,/G,/A,/ | %92
 D,/D/D,/D/ F,/D/F,/D/ E,/^C/E,/C/ | D,/D/D,/D/ F,/D/F,/D/ E,/^C/E,/C/ | %94
 D,/D/^C/D/ F,/D/C/D/ E,/D/C/D/ | D,/D/^C/D/ F,/D/C/D/ E,/D/C/D/ | %96
 D,/A,/G,/A,/ F,/A,/G,/A,/ E,/A,/G,/A,/ | D,/A,/G,/A,/ F,/A,/G,/A,/ E,/A,/G,/A,/ | %98
 D2[K:alto] E2 z2 | F/G/F/E/ D2 ^C2 | DA A4- | A2 z2 z2 | z2 D2 E2 | F/G/F/E/ D2 ^C2 | DA A4- | %105
 A2[K:bass] E,2 z2 | D,2 F,A, E,A, | D,D,, F,/A,/A,/A,/ E,/G,/G,/G,/ | D,D,/E,/ F,D, E,A,, | %109
 D,,D,/E,/ F,D, E,A,, | D,,2 F,,2 E,,2 | D,,D,,/E,,/ F,,2 E,,2 | %112
 D,,D,/E,/ F,/F,/F,/D,/ E,/E,/E,/A,,/ | D,,D (F,/E,/)D, E,A, | D,/D/D/D/ (F,/E,/)D, E,A, | %115
 D,/D,/D,/D,/ F,/F,/F,/F,/ E,/E,/E,/E,/ | D,/D,/D,/D,/ F,/F,/F,/F,/ E,/E,/E,/E,/ | %117
 D,[K:alto] (F/E/) D2 ^C2 | D>A x4 | (F3 (3E/F/G/) (G3/2F/4G/4) | (A3 (3^C/D/E/) (E3/2D/4E/4) | %121
 F(F/E/) D2 ^C2 | D>A x4 | (F/G/)(F/G/) A4 |[K:bass] D,D,F,A, E,G, | D,(D,/E,/) (F,/G,/)A, E,A, | %126
 D,(D,/E,/) F,F, E,A, | D,D,/E,/ F,F, E,A, | D,/E,/D,/E,/ F,/F,/A,/A,/ E,G, | %129
 D,/E,/D,/E,/ F,/A,/F,/A,/ E,/A,/E,/A,/ | D,/D,,/D,,/E,,/ F,,F,E,A, | %131
 D,/D,,/D,,/E,,/ F,,/F,/F,/F,/ E,A, | D,/A,/B,/^C/ DF,E,C | D,/A,/B,/^C/ DF,E,C | %134
 D,/D/D/D/ F,/D/D/D/ E,/^C/C/C/ | D,/D/D/D/ F,/D/D/D/ E,/^C/C/C/ | D,/F,/ A,3/2 F,/A,/F,/ E,A, | %137
 D,/F,/ A,3/2 F,/A,/F,/ E,A, | D,/F,/D,/F,/ A,/F,/A,/F,/ E,/G,/E,/G,/ | %139
 D,/F,/D,/F,/ A,/F,/A,/F,/ E,/G,/E,/G,/ | D,>[K:alto]F F2 (^C>E) | A,>F, F,2 E,2 | %142
 D,>F (F>G) (E>F) | D>A (A>F) (G>E) | F>F (F>A) (^C>E) | D>A (3(A_BA) (3(GAG) | %146
 F>F (3(FGF) (3(EFE) | D>A (3(A_BA) (3(GAG) | F>F (3(FGF) (3(EFE) | (D3 E/F/) ^C2 | %150
 (D3 E/4D/4E/4F/4) ^C2 | D2 (A4 | A6 | A2)[K:bass] (3(F,G,F,) (3(E,F,E,) | %154
 D,2 (3(F,G,F,) (3(E,F,E,) | x4 E,2 | D,/E,/F,/G,/ A,/B,/A,/B,/ ^C/B,/C/A,/ | %157
 D,/E,/F,/G,/ A,/B,/A,/B,/ ^C/B,/C/A,/ | D,2[K:alto] E2 z2 | (DE) (FG) (EF) | D2 F2 E2 | %161
 DE (FG/F/) (EF/E/) | (DE) (FG) (FE) | (DE) (FG) (FE) | (DE) (FG) (FE) | (DE) (FG) (FE) | D2 A3 A | %167
 A6 |[K:bass] z2 F,2 E,2 | D,2 C,2 B,,2 | A,,2[K:alto] A2 (^G3/2F/4G/4) | A4 B2 | E6- | E6- | %174
 E2 A,2 (B,3/2A,/4B,/4) | C4 D2 | E2 ^F2 ^G2 | A4 z2 | E>E E2 ^G,2 | A,4 (B,3/2A,/4)B,/4 | %180
 C2 C/B,/C/.D/ (D3/2C/4D/4) | E>E E2 ^G,2 | A,4 (B,3/2A,/4B,/4) | CB, A,2 (^G,3/2F,/4G,/4) | %184
 (A,3 ^G,/A,/) B,2 | E,>A, (A,3/2^G,/4A,/4) B,2 |[K:bass] E,>D, C,2 B,,2 | A,,(A,,/B,,/) C,2 B,,2 | %188
 A,,(A,,/B,,/) C,(D,/C,/) B,,(C,/B,,/) | A,,(A,,/B,,/) C,(D,/C,/) B,,(C,/B,,/) | %190
 A,,>A, (A,>^G,) (A,>B,) | C>A, (A,>^G,) A,>B, |[K:alto] C>C (C>B,) (C>D) | E4 z2 | %194
[K:alto1] z z/ A/ A2 B2 | c>c c2 d2 | e>A A2 (^G3/2F/4)G/4 | A4 z2 |[K:alto] A4 B2 | %199
 E/D/C/B,/ .A,.A,.B,.B, | E,C/B,/ .A,.A,.B,.B, | E, A,2 A, ^G,(^F,/G,/) | .A,.A,.A,.A, B,B, | %203
 E, A,2 A, ^G,(^F,/G,/) | A,AAA D(C/B,/) | C(C/B,/) A,[K:bass]C, B,,E, ||[K:F]!f! A,,2 A,,2 G,,2 | %207
 F,,2 A,,2 G,,2 | F,,2 A,,2 G,,2 | F,,2 A,,2 G,,2 | F,,2 C2 B,2 | A,4 B,2 | A,4 B,2 | %213
 A,>G, F,2 E,2 | F,4 E,2 | F,>C C4- | C4- C>C | C6- | C4- C>B, | A,>G, F,2 E,2 | A,>G, F,2 E,2 | %221
 F,>C x4 | C>F, (F,3/2E,/4F,/4) (G,3/2F,/4G,/4) | A,>C C4- | C>F, (F,/G,/A,/B,/) (B,>A,) | %225
 A,2[K:alto] x4 | A2 F2 E3/2 (3(E/4F/4G/4) | (A>G) (F>G) (E>G) | (A/G/A/G/) (F/A/G/F/) (E/F/G/E/) | %229
 (A/G/A/G/) (F/A/G/F/) (E/F/G/E/) | A>F (F2{GFEF} G2) | C>!p!F (F2{GFEF} G2) |!f! (C3 D) C>C | %233
 (C3 .D) C>C | C>A A2 (B3/2A/4B/4) | c>!p!F (FE/F/) (G>C) | C3/2!f! F/ F2 E2 | F>c c4- | %238
 c>F (FE/F/) (G>C) | C>c c4- | c3/2!f! (A,/4G,/4) F,2 E,2 | F,3/2!p! (A,/4G,/4) G,2 F,2 | %242
 F,!f! A,/4B,/4 C2 (B,3/2E,) | F,!p! (A,/4B,/4) C2 (B,3/2E,) | F,>!f!F (3(FGF) (3(EDE) | %245
 F>!p!F (3(FGF) (3(EDE) | F2-!f! F3/2 (3F/4E/4F/4 G>G | C>!p!F F3/2 (3F/4E/4F/4 G>G | %248
 C>c!f! c2 (B3/2A/4B/4) | A>c!p! c2 (B3/2A/4B/4) ||[K:C]!mf! A2 z2 z2 | z6 | z .D.D.D ^C(_B,/C/) | %253
 .D.D.D.D ^C(_B,/C/) | DAAA G(F/G/) | AAAA G(F/G/) | Addd ^c(_B/c/) | dddd ^c(_B/c/) | %258
 dAAA (G/F/) (G/E/) | FAAA (G/F/) (G/E/) | (F/G/)(F/E/) (D/F/)(E/D/) (^C/D/)(E/C/) | %261
 F/G/ (F/E/) (D/F/) (E/D/) (^C/D/) E/^C/ | D (F/G/) (A/B/) (A/B/) (^c/B/) (c/A/) | %263
 d (F/G/) (A/B/) (A/B/) (^c/B/) (c/A/) | d2 z2 z2 | z6 | z6 |[K:bass] D,2 (3(F,G,F,) (3(E,F,E,) | %268
 D,2 F,2 E,2 | D,2 (3(F,G,F,) (3(E,F,E,) | D,2 F,2 E,2 | D,D,, F,2 E,2 | D,D,, F,2 E,2 | %273
 D,2[K:alto] (D2 ^C2) | D4 (E3/2D/4E/4) | F2 (D2 ^C2) | (D2 E/F/) ^C3/2_B,/4C/4 z | D>A A4- | A6- | %279
 A2[K:bass] F,2 E,2 | D,2 F,2 E,2 | D,/E,/D,/E,/ F,/E,/F,/D,/ E,/D,/E,/A,,/ | %282
 D,/E,/D,/E,/ F,/E,/F,/D,/ E,/D,/E,/A,,/ | %283
 D,3/2(3E,/4D,/4E,/4 F,3/2(3A,/4G,/4F,/4 E,3/2(3G,/4F,/4E,/4 | %284
 D,3/2(3E,/4D,/4E,/4 F,3/2(3A,/4G,/4F,/4 E,3/2(3G,/4F,/4E,/4 | %285
 D,,/D,/D,,/D,/ F,,/F,/F,,/F,/ E,,/E,/E,,/E,/ | D,,/D,/D,,/D,/ F,,/F,/F,,/F,/ E,,/E,/E,,/E,/ | %287
 D,,2 F,2 E,A, | D,2 F,2 E,A, | (.D,/.D,/.D,/.D,/) (.F,/.F,/.F,/.F,/) (.E,/.E,/.E,/.E,/) | %290
 (.D,/.D,/.D,/.D,/) (.F,/.F,/.F,/.F,/) (.E,/.E,/.E,/.E,/) | D,2 F,G,/F,/ E,A, | D,2 F,2 E,2 | %293
 D,2 F,G,/F,/ E,A, | D,2 F,,2 E,,2 | D,,D,/E,/ F,/E,/F,/D,/ E,/D,/E,/A,,/ | %296
 D,,D,/E,/ F,/E,/F,/D,/ E,/D,/E,/A,,/ | D,2 F,2 E,2 | D,D F,2 E,2 | D,/D/D/D/ F,2 E,2 | %300
 D,/E,/F,/D,/ A,2 A,,2 | D,,6 |] %302
V:3
 x6 | x6 | x6 | x6 | x6 | x6 | x6 | x6 | x6 | x6 | x6 | x6 | x6 | x6 | x6 | x6 | x6 | x6 | x6 | %19
 x6 | x6 | x6 | D,A, F,2 E,2 | D,2 F,2 E,2 | D,2 (F,D) (E,^C) | x6 | D,!f!(D,/E,/) F,2 A,,2 | %27
 x2 F,2 A,,2 | x6 | x6 | x6 | x6 | x6 | x6 | x6 | x6 | x2 F,2 E,2 | x6 | x6 | x6 | x6 | x6 | x6 | %43
 D,,D, D,D, A,,A,, | D,,D, D,D, A,,A,, | x6 | x6 | x6 | x6 | x6 | x6 | x6 | x6 | x6 | x6 | x6 | %56
 x6 | x6 | x6 | x6 | x6 | x6 | x6 | x6 | x2[K:alto] x4 | x6 | x6 | x6 |[K:alto] x6 | x6 | x6 | x6 | %72
 x6 | x6 | x6 | x6 | x6 |[K:alto1] x6 | x6 | x6 | x6 | x6 |[K:alto] x6 | x6 | D/[K:bass] x11/2 | %85
 x6 | x6 | x6 | x6 | x6 | x6 | x6 | x6 | x6 | x6 | x6 | x6 | x6 | x2[K:alto] x4 | x6 | x6 | x6 | %102
 x6 | x6 | x6 | x2[K:bass] x4 | x6 | x6 | x6 | x6 | x6 | x6 | x6 | x6 | x6 | x6 | x6 | %117
 x[K:alto] x5 | [D,F,A,]2 A2 G2 | x6 | x6 | x6 | [D,F,A,]2 A2 G2 | x6 |[K:bass] x6 | x6 | x6 | x6 | %128
 x6 | x6 | x6 | x6 | x6 | x6 | x6 | x6 | x6 | x6 | x6 | x6 | x3/2[K:alto] x9/2 | x6 | x6 | x6 | %144
 x6 | x6 | x6 | x6 | x6 | x6 | x6 | x6 | x6 | x2[K:bass] x4 | x6 | D,E, F,2 A,,2 | x6 | x6 | %158
 x2[K:alto] x4 | x6 | x6 | x6 | x6 | x6 | x6 | x6 | x6 | x6 |[K:bass] x6 | x6 | x2[K:alto] x4 | %171
 x6 | x6 | x6 | x6 | x6 | x6 | x6 | x6 | x6 | x6 | x6 | x6 | x6 | x6 | x6 |[K:bass] x6 | x6 | x6 | %189
 x6 | x6 | x6 |[K:alto] x6 | x6 |[K:alto1] x6 | x6 | x6 | x6 |[K:alto] x6 | x6 | x6 | x6 | x6 | %203
 x6 | x6 | x3[K:bass] x3 ||[K:F] x6 | x6 | x6 | x6 | x6 | x6 | x6 | x6 | x6 | x6 | x6 | x6 | x6 | %219
 x6 | x6 | [F,,A,,C,] x C4 | x6 | x6 | x6 | F,2[K:alto] F2 E3/2 (3(E/4F/4G/4) | x6 | x6 | x6 | x6 | %230
 x6 | x6 | x6 | x6 | x6 | x6 | x6 | x6 | x6 | x6 | x6 | x6 | x6 | x6 | x6 | x6 | x6 | x6 | x6 | %249
 x6 ||[K:C] x6 | x6 | x6 | x6 | x6 | x6 | x6 | x6 | x6 | x6 | x6 | x6 | x6 | x6 | x6 | x6 | x6 | %267
[K:bass] x6 | x6 | x6 | x6 | x6 | x6 | x2[K:alto] x4 | x6 | x6 | x6 | x6 | x6 | x2[K:bass] x4 | %280
 x6 | x6 | x6 | x6 | x6 | x6 | x6 | x6 | x6 | x6 | x6 | x6 | x6 | x6 | x6 | x6 | x6 | x6 | x6 | %299
 x6 | x6 | x6 |] %302
V:4
!p! D,,2 F,2 E,2 | D,2 F,2 E,2 | D,2 F,2 E,2 | D,2 F,2 E,2 | D,2 F,2 E,2 | D,2 F,2 E,2 | %6
 D,2 F,2 E,2 | D,2 F,2 E,2 | D,2 F,2 E,2 | D,2 F,2 E,2 | D,2 F,2 E,2 | D,2 F,2 E,2 | D,2 F,2 E,2 | %13
 D,2 F,2 E,2 | D,2 F,2 E,2 | D,2 F,2 E,2 | D,2 F,2 E,2 | D,2 F,2 E,2 | D,2 F,2 E,2 | D,2 F,2 E,2 | %20
 D,2 F,2 E,2 | D,2 F,2 E,2 | D,2 F,2 E,2 | D,2 F,2 E,2 | D,2 F,2 E,2 | D,2 F,2 E,2 | D,2 F,2 E,2 | %27
 D,2 F,2 E,2 | D,4 A,,2 | D,4 A,,2 | D,,2 D,2 A,,2 | D,,2 D,2 A,,2 | D,,2 F,2 E,2 | D,2 F,2 E,2 | %34
 D,2 F,2 E,2 | D,2 F,2 E,2 | D,2 F,2 E,2 | D,2 F,2 E,2 | D,2 F,2 E,2 | D,2 F,2 E,2 | D,2 F,2 E,2 | %41
 D,2 F,2 E,2 | D,2 F,2 E,2 | D,2 F,2 E,2 | D,2 F,2 E,2 | D,2 F,2 E,2 | D,2 F,2 E,2 | D,2 F,2 E,2 | %48
 D,2 z2 E,2 | D,2 z2 E,2 | D,2 z2 E,2 | D,2 z2 E,2 | D,>F, F,2 E,2 | D,E, F,2 E,2 | D,>F, F,2 E,2 | %55
 D,E, F,2 E,2 | D,/E,/D,/E,/ F,2 E,2 | D,/E,/D,/E,/ F,2 E,2 | D,2 F,2 E,2 | D,2 F,,2 A,,2 | %60
 D,2 F,F,E,E, | D,2 F,F,E,E, | D,2 F,,F,, A,,A,, | D,2 F,,F,, A,,A,, | D,,2 F,2 E,2 | %65
 D,E, F,2 E,2 | D,2 F,2 E,2 | D,E, F,2 E,2 | D,D,, F,2 E,2 | D,D,, F,2 E,2 | D,D, F,F, E,A, | %71
 D,D, F,F, E,A, | D,D,, F,2 E,2 | D,D,, F,2 E,2 | D,D,, F,2 E,2 | D,D, F,F, E,A, | D,D, F,F, E,A, | %77
 D,2 F,2 E,2 | D,E, F,2 E,2 | D,E, F,2 E,2 | D,A, F,A, E,A, | D,2 F,2 E,2 | D,E, F,2 E,2 | %83
 D,>D, F,2 E,2 | D,D,, F,,2 E,,2 | D,,D, F,2 E,2 | D,D,/E,/ F,F,,/G,,/ A,,A,, | %87
 D,D,/E,/ F,F,,/G,,/ A,,A,, | D,2 F,2 E,A, | D,2 F,2 E,A, | D,2 z F,, A,,A,, | D,2 z F,, A,,A,, | %92
 D,/D,,/D,,/E,,/ F,,/F,,/F,,/G,,/ A,,A,, | D,/D,,/D,,/E,,/ F,,/F,,/F,,/G,,/ A,,A,, | %94
 D,D,, F,,F,, A,,A,, | D,,D,, F,,F,, A,,A,, | D,,D,, F,,F,, A,,A,, | D,,D,, F,,F,, A,,A,, | %98
 D,D,/E,/ F,2 E,2 | D,D,/E,/ F,2 E,2 | D,2 F,2 E,2 | D,D,/E,/ F,2 E,2 | D,/^C,/D,/E,/ F,F, E,E, | %103
 D,/^C,/D,/E,/ F,F, E,E, | D,D,, F,2 E,2 | D,D,, F,2 E,2 | D,D,, F,2 E,2 | %107
 .D,-.D, .F,-.F, .E,-.E, | .D,-.D, .F,-.F, .E,-.E, | D,2 F,2 E,2 | D,2 F,,2 E,,2 | %111
 D,,D,,/E,,/ F,,2 E,,2 | D,,D, F,D, E,A,, | D,2 z F, E,2 | D,2 z F, E,2 | D,2 z F, A,,A,, | %116
 D,2 z F, A,,A,, | D,2 F,2 E,2 | D,D,, F,2 E,2 | D,D,, F,2 E,2 | D,D,, F,F,, E,E,, | %121
 D,D,, F,F, E,E, | D,F, D,F, E,A,, | D,F,D,F, E,A,, | D,D,F,A, E,G, | D,D,/E,/ F,A, E,A, | %126
 D,(D,/E,/) F,F, E,A, | D,D,/E,/ F,F,E,A, | D,D,/E,/ F,A, E,G, | D,D,/E,/ F,D,E,A,, | %130
 D,D,/E,/ F,D,E,A,, | D,D,, F,,F,, A,,A,, | D,D,, F,,F,, A,,A,, | D,D,, F,,F,, A,,A,, | %134
 D,,2 D,2 A,,2 | D,,2 D,2 A,,2 | D,,2 D,D,, A,,A,,, | D,,2 D,D,, A,,A,,, | D,,2 F,F,, A,,A,, | %139
 D,,2 F,F,, A,,A,, | D,,2 D,2 A,,2 | D,2 F,2 E,2 | D,2 D,2 A,,2 | D,2 F,2 E,2 | D,2 D,2 A,,2 | %145
 D,2 F,2 E,2 | D,2 D,2 A,,2 | D,2 F,2 E,2 | D,2 D,2 A,,2 | D,2 F,2 E,2 | D,2 F,2 E,2 | %151
 D,2 F,2 E,2 | D,2 F,2 E,2 | D,2 z2 E,2 | D,2 z2 E,2 | D,2 F,,2 A,,2 | D,A, F,2 E,2 | %157
 D,A,/G,/ F,2 E,2 | D,2 D,2 A,,2 | D,2 z2 A,,2 | D,2 z2 A,,2 | D,2 E,2 A,,2 | D,2 z2 A,,2 | %163
 D,2 z2 A,,2 | D,2 z2 A,,2 | D,2 z2 A,,2 | D,2 F,,2 A,,2 | D,2 F,,2 A,,2 | D,2 F,,2 A,,2 | %169
 D,2 C,2 B,,2 | A,,2 C,2 B,,2 | A,,2 C,2 B,,2 | A,,B,, C,2 B,,2 | A,,B,, C,2 B,,2 | %174
 A,,B,, C,2 B,,2 | A,,E,/D,/ C,2 B,,2 | A,,E,/D,/ C,2 B,,2 | A,,B,, C,2 B,,2 | A,,B,, C,2 B,,2 | %179
 A,,E,/D,/ C,D, B,,E, | A,,E,/D,/ C,2 B,,2 | A,,E,/D,/ C,D, B,,E, | A,,/F,/E,/D,/ C,A, B,,^G, | %183
 A,,B,, C,2 B,,2 | A,,>C, C,2 B,,2 | A,,>C, C,2 B,,2 | A,,2 C,2 B,,2 | A,,2 z2 B,,2 | %188
 A,,2 z2 B,,2 | A,,2 z2 B,,2 | (.A,,.C,) C,-.C, B,,-.B,, | (.A,,.C,) C,-.C, B,,-.B,, | %192
 A,,E, C,2 B,,2 | A,,E, C,2 B,,2 | A,,2 C,2 B,,2 | A,,E,/D,/ C,A,B,,^G, | A,,A, C,2 B,,2 | %197
 A,,B,, C,2 B,,2 | A,,A, C,2 B,,2 | A,,-A,, .C,-.C, B,,-B,, | A,,-A,, .C,-.C, B,,-.B,, | %201
 A,,-A,, .C,-.C, B,,E, | A,,A,, C,2 B,,2 | A,,A,, C,C, B,,E, | A,,2 C,2 B,,2 | A,,2 C,2 B,,2 || %206
[K:F] A,,2 A,,2 G,,2 | F,,2 A,,2 G,,2 | F,,2 A,,2 G,,2 | F,,2 A,,2 G,,2 | F,,2 A,,2 G,,2 | %211
 F,,G,, A,,2 G,,2 | F,,G,, A,,2 G,,2 | F,,(C,/B,,/) A,,2 G,,2 | F,,(C,/B,,/) A,,2 G,,2 | %215
 F,,(F,,/G,,/) A,,2 G,,2 | F,,2 A,,2 G,,2 | F,,2 A,,2 G,,2 | F,,G,, A,,2 G,,2 | F,,G,, A,,2 G,,2 | %220
 F,,G,, A,,2 G,,2 | F,,2 A,,2 G,,2 | F,,2 A,,2 G,,2 | F,,A,, A,,2 G,,2 | F,,2 A,,2 G,,2 | %225
 F,,A,, A,,2 G,,2 | F,,F, A,,C, G,,B,, | F,,2 A,,2 G,,2 | F,,F, A,,C, G,,B,, | F,,2 A,,2 G,,2 | %230
 F,,2!f! A,,2 G,,2 | F,,2!p! A,,2 G,,2 | F,,!f!F, A,,F, G,,E, | F,,!p!!p!F, A,,F, G,,E, | %234
 F,,>!f!!f!F,, A,,2 G,,2 | F,,>!p!F,, A,,2 G,,2 | F,,2!f! A,,2 (3(G,,A,,G,,) | %237
 F,,>F,, (3(A,,B,,A,,) (3(G,,A,,G,,) | F,,2!p! A,,2 G,,2 | F,,2 A,,2 G,,2 | F,,2!f! A,,2 G,,2 | %241
 F,,2!p! A,,2 G,,2 | F,,2 A,,2 G,,2 | F,,2!p! A,,2 G,,2 | F,,2 A,,2 G,,2 | F,,2!p! A,,2 G,,2 | %246
 F,,2!f! A,,2 G,,2 | F,,2!p! A,,2 G,,2 | F,,2!f! A,,2 G,,2 | F,,2!p! A,,2 G,,2 || %250
[K:C] F,,2!f! F,2 E,2 | D,2 F,2 E,2 | D,2 F,2 E,2 | D,2 F,2 E,2 | D,D,/E,/ F,2 E,2 | %255
 D,D,/E,/ F,2 E,2 | D,F,F,F, E,A, | D,F,F,F, E,A, | D,2 F,2 E,2 | D,2 F,2 E,2 | %260
 D,D, F,,F,, A,,A,, | D,D, F,,F,, A,,A,, | D,2 F,2 E,2 | D,2 F,2 E,2 | D,/_B,/A,/G,/ F,F, E,E, | %265
 D,/_B,/A,/G,/ F,F, E,E, | D,/_B,/A,/G,/ F,/A,/G,/F,/ E,/G,/F,/E,/ | D,2 (3(F,G,F,) (3(E,F,E,) | %268
 D,2 F,2 E,2 | D,2 (3(F,G,F,) (3(E,F,E,) | D,2 F,2 E,2 | D,D,, F,2 E,2 | D,D,, F,2 E,2 | %273
 D,>E, F,2 E,2 | D,>E, F,2 E,2 | D,2 F,2 E,2 | D,>E, F,2 E,2 | D,2 F,2 E,2 | D,>G, F,2 E,2 | %279
 D,2 F,2 E,2 | D,2 F,2 E,2 | D,D, F,F, E,A,, | D,D, F,F, E,A,, | D,D,, F,F,, E,E,, | %284
 D,D,, F,F,, E,E,, | D,D, F,,F,, E,,E,, | D,,D,, F,,F,, E,,E,, | D,,2 F,2 E,A, | D,2 F,2 E,A, | %289
 D,2 F,,2 E,,2 | D,,2 F,,2 E,,2 | D,,2 F,G,/F,/ E,A, | D,2 F,2 E,2 | D,2 F,G,/F,/ E,A, | %294
 D,2 F,,2 E,,2 | D,,2 F,,2 E,,2 | D,,2 F,,2 E,,2 | D,,2 F,2 E,2 | D,D,/E,/ F,2 E,2 | D,D, F,2 E,2 | %300
 D,2 A,2 A,,2 | D,,6 |] %302

